X:1
T: The Kerry Jig
C:
R:Jig
Q:180
K:C
M:6/8
L:1/16
B2|A4A2 A2G2E2|A4A2 A2G2E2|G4E2 c4E2|G6E4G2|A4A2 A2B2c2|B2A2B2 G4B2|A2B2c2 d2c2B2|c6c6|
A4A2 A2G2E2|A4A2 A2G2E2|G4E2 c4E2|G6E4G2|A4A2 A2B2c2|B2A2B2 G4B2|A2B2c2 d2c2B2|c6c4d2|
e4e2 e2d2c2|e6g4G2|A4G2 c4E2|G6E4G2|A4A2 A2B2c2|B2A2B2 G4B2|A2B2c2 d2c2B2|c6c4d2|
e4e2 e2d2c2|e6g4G2|A4G2 c4E2|G6E4G2|A4A2 A2B2c2|B2A2B2 G4B2|A2B2c2 d2c2B2|c6c4||
